assets/images/V_copy.svg

<svg width="50" height="50" viewBox="0 0 50 50" fill="none" xmlns="http://www.w3.org/2000/svg">
<path d="M25 0C11.1927 0 0 11.1927 0 25C0 38.8073 11.1927 50 25 50C38.8073 50 50 38.8073 50 25C50 11.1927 38.8073 0 25 0ZM34.6146 28.2057C34.6146 28.2057 36.8255 30.388 37.3698 31.401C37.3854 31.4219 37.3932 31.4427 37.3984 31.4531C37.6198 31.8255 37.6719 32.1146 37.5625 32.3307C37.3802 32.6901 36.7552 32.8672 36.5417 32.8828H32.6354C32.3646 32.8828 31.7969 32.8125 31.1094 32.3385C30.5807 31.9687 30.0599 31.362 29.5521 30.7708C28.7943 29.8906 28.138 29.1302 27.4766 29.1302C27.3925 29.1301 27.309 29.1432 27.2292 29.1693C26.7292 29.3307 26.0885 30.0443 26.0885 31.9453C26.0885 32.5391 25.6198 32.8802 25.2891 32.8802H23.5C22.8906 32.8802 19.7161 32.6667 16.9036 29.7005C13.4609 26.0677 10.362 18.7812 10.3359 18.7135C10.1406 18.2422 10.5443 17.9896 10.9844 17.9896H14.9297C15.4557 17.9896 15.6276 18.3099 15.7474 18.5937C15.888 18.9245 16.4036 20.2396 17.25 21.7188C18.6224 24.1302 19.4635 25.1094 20.138 25.1094C20.2645 25.1079 20.3887 25.0757 20.5 25.0156C21.3802 24.526 21.2161 21.388 21.1771 20.737C21.1771 20.6146 21.1745 19.3333 20.724 18.7187C20.401 18.2734 19.8516 18.1042 19.5182 18.0417C19.6531 17.8555 19.8309 17.7045 20.0365 17.6016C20.6406 17.2995 21.7292 17.2552 22.8099 17.2552H23.4115C24.5833 17.2708 24.8854 17.3464 25.3099 17.4531C26.1693 17.6589 26.1875 18.2135 26.112 20.112C26.0885 20.651 26.0651 21.2604 26.0651 21.9792C26.0651 22.1354 26.0573 22.3021 26.0573 22.4792C26.0312 23.4453 26 24.5417 26.6823 24.9922C26.7713 25.048 26.8741 25.0778 26.9792 25.0781C27.2161 25.0781 27.9297 25.0781 29.862 21.763C30.4579 20.696 30.9758 19.5872 31.4115 18.4453C31.4505 18.3776 31.5651 18.1693 31.7005 18.0885C31.8005 18.0376 31.9113 18.0117 32.0234 18.013H36.6615C37.1667 18.013 37.513 18.0885 37.5781 18.2839C37.6927 18.5937 37.5573 19.5391 35.4401 22.4062L34.4948 23.6536C32.5755 26.1693 32.5755 26.2969 34.6146 28.2057Z" fill="#ffb92f"/>
</svg>

<svg width="50" height="50" fill="none" xmlns="http://www.w3.org/2000/svg"><path d="M25 0C11.193 0 0 11.193 0 25s11.193 25 25 25 25-11.193 25-25S38.807 0 25 0Zm9.615 28.206s2.21 2.182 2.755 3.195c.015.02.023.042.028.052.222.373.274.662.164.878-.182.36-.807.536-1.02.552h-3.907c-.27 0-.838-.07-1.526-.544-.528-.37-1.05-.977-1.557-1.568-.758-.88-1.414-1.64-2.075-1.64a.793.793 0 0 0-.248.038c-.5.162-1.14.875-1.14 2.776 0 .594-.47.935-.8.935H23.5c-.61 0-3.784-.213-6.596-3.18-3.443-3.632-6.542-10.919-6.568-10.986-.195-.472.208-.724.648-.724h3.946c.526 0 .698.32.817.604.141.33.657 1.646 1.503 3.125 1.372 2.411 2.213 3.39 2.888 3.39a.781.781 0 0 0 .362-.093c.88-.49.716-3.628.677-4.279 0-.122-.003-1.404-.453-2.018-.323-.446-.872-.615-1.206-.677.135-.187.313-.338.518-.44.605-.303 1.693-.347 2.774-.347h.602c1.171.016 1.473.091 1.898.198.86.206.878.76.802 2.659a41.31 41.31 0 0 0-.047 1.867c0 .156-.008.323-.008.5-.026.966-.057 2.063.625 2.513a.562.562 0 0 0 .297.086c.237 0 .95 0 2.883-3.315a25.306 25.306 0 0 0 1.55-3.318c.039-.067.153-.276.289-.357.1-.05.21-.076.322-.075h4.638c.506 0 .852.075.917.27.115.31-.02 1.256-2.138 4.123l-.945 1.248c-1.92 2.515-1.92 2.643.12 4.552Z" fill="#ffb92f"/></svg>
